projects/oblique/icons/Car.svg

<?xml version="1.0" encoding="UTF-8"?><svg id="a" xmlns="http://www.w3.org/2000/svg" viewBox="0 0 24 24"><path d="M21.17969,9.44434l-2.21045-6.19434H5.16162l-2.35193,6.19434h-1.5592v8.74756h2.54199v1.80811c0,.41406.33594.75.75.75h2.14307c.41406,0,.75-.33594.75-.75v-1.80811h9.11768v1.80811c0,.41406.33594.75.75.75h2.14307c.41406,0,.75-.33594.75-.75v-1.80811h2.55322v-8.74756h-1.56982ZM6.19678,4.75h11.71484l1.67517,4.69434H4.41418l1.78259-4.69434ZM5.93555,19.25h-.64307v-1.05811h.64307v1.05811ZM18.69629,19.25h-.64307v-1.05811h.64307v1.05811ZM21.24951,16.6919H2.75049v-5.74756h18.49902v5.74756ZM16.89453,16.19141H7.15186v-1.5h9.74268v1.5ZM15.53027,14.1919h-7.01465v-1.5h7.01465v1.5ZM18.31641,14.12988c.76172,0,1.38135-.62012,1.38135-1.38184s-.61963-1.38135-1.38135-1.38135-1.38135.61963-1.38135,1.38135.61963,1.38184,1.38135,1.38184ZM18.31641,12.62988c.06543,0,.11865.05322.11865.11816,0,.13086-.2373.13086-.2373,0,0-.06494.05322-.11816.11865-.11816ZM5.55566,14.12988c.76172,0,1.38135-.62012,1.38135-1.38184s-.61963-1.38135-1.38135-1.38135-1.38184.61963-1.38184,1.38135.62012,1.38184,1.38184,1.38184ZM5.55566,12.62988c.06494,0,.11816.05322.11816.11816,0,.13135-.23682.13037-.23682,0,0-.06494.05322-.11816.11865-.11816Z"/></svg>

<svg xmlns="http://www.w3.org/2000/svg" viewBox="0 0 24 24"><title>Car</title><path d="M21.17969,9.44434,18.96924,3.25H5.16162L2.80969,9.44434H1.25049V18.1919h2.542V20a.7502.7502,0,0,0,.75.75H6.68555a.7502.7502,0,0,0,.75-.75V18.1919h9.11767V20a.7502.7502,0,0,0,.75.75h2.14307a.7502.7502,0,0,0,.75-.75V18.1919h2.55322V9.44434ZM6.19678,4.75H17.91162l1.67517,4.69434H4.41418Zm-.26123,14.5H5.29248V18.1919h.64307Zm12.76074,0h-.64307V18.1919h.64307Zm2.55322-2.5581H2.75049V10.94434h18.499Z" fill="#171717"/><rect x="7.15186" y="14.69141" width="9.74268" height="1.5" fill="#171717"/><rect x="8.51563" y="12.6919" width="7.01465" height="1.5" fill="#171717"/><path d="M18.31641,14.12988A1.38159,1.38159,0,1,0,16.93506,12.748,1.38326,1.38326,0,0,0,18.31641,14.12988Zm0-1.5a.11868.11868,0,0,1,.11865.11817c0,.13086-.23731.13086-.23731,0A.11869.11869,0,0,1,18.31641,12.62988Z" fill="#171717"/><path d="M5.55566,14.12988A1.38159,1.38159,0,1,0,4.17383,12.748,1.38327,1.38327,0,0,0,5.55566,14.12988Zm0-1.5a.11858.11858,0,0,1,.11817.11817c0,.13135-.23682.13037-.23682,0A.11868.11868,0,0,1,5.55566,12.62988Z" fill="#171717"/></svg>
